X: 1
T: March Of The King Of Laoise
M: 3/2
L: 1/8
K: Dmix
"D"A4F2|A4D2|A4F2|A4D2|"G"B4G2|"D"A4F2|"A"G4F2|E4D2|"D"A4F2|
"D"A4D2|A4F2|A4d2|"G"B4d2|"D"A4F2|"A"G4F2|E4D2|"D"F4D2|"G"G>AB|
"D"A6|A>GF|"C"E>cG|E>cE|G>cG|"D"E>cE|D>ED|D>ED|D>ED|D4:|]
c2|"G"B4G2|d4G2|B4G2|d>^cB|"D"A4d2|A>GF|A4d2|A>Bc|
"G"B4e2|"D"d4A2|"G"G6|"A"E>FG|"D"F4D2|"G"G>AB|"A"A6|A>GF|
"C"E>cG|E>cE|G>cG|E>cE|"D"D>ED|D>ED|D>ED|D4:|]



